X:1
T:RETORNANDO
T:ANTONIN DVORAK (1841-1904)
T:Transcripción DESDE BASTIEN I Ud. 8 retocada para estudiar
%%score { 1 | 2 }
L:1/8
Q:1/4=65
M:4/4
K:C
V:1 treble nm="Piano" snm="Pno."
V:2 bass 
V:1
"^Largo (muy lento)"!mp! (!3!E3 G G4 | E3 D C4 | D3 E G3 E | D6) z2 | (E3 G G4 | E3 D C4 | %6
 D2 E2 D3 C | C6) z2 | (!3!A3 c c4 | B2 G2 A4 | A2 c2 B2 G2 | A6) z2 | !3!E3 G G4 | (E3 D C4 | %14
 D3 E G3 E | D6) z2 | (E3 G G4 | E3 D C4 | D2 E2 D3 C | C6) z2 |] %20
V:2
!mp! !5!C,8 | G,8 | !5!!1![B,,G,]8- | [B,,G,]6 z2 | !5!C,8 | G,8 | !5!!1![B,,G,]8 | [C,E,G,]6 z2 | %8
 F,8 | G,4 F,4 | F,4 G,4 | F,6 z2 | !5!C,8 | G,8 | [B,,G,]8- | [B,,G,]6 z2 | C,8 | G,8 | [B,,G,]8 | %19
 [C,E,G,]6 z2 |] %20

